!!!SOCIAL_FUNCTION:	songs connected with war and hunting
!!!PDT:	1932
!!!OTL: No_30_I_Will_Get_a_Buck.krn
!!!REG: Wisconsin
!!!LANG: Non-Tone
!!!LING_GROUP: Algonquin
**kern
*staff1
=1-
*clefF4
*k[]
*M2/4
4r
8G\L
8G\J
=2!|:
4d\
[4d\
=3
4d\]
8c\L
8A\J
=4
4c\
4G\
=5
8G\L
8G\J
8G\L
8G\J
=6
4G\
4G\
=7
8G\L
8G\J
8G\
8r
=8
8c\L
8c\J
8B\L
8A\J
=9
8c\L
8c\J
8d\L
8c\J
=10||
*M3/4
4G\
8G\L
8G\J
8G\L
8G\J
=11||
*M2/4
4G\
4G\
=12
8G\L
8G\J
8G\L
8G\J
=13
8G\
8r
8G\L
8G\J
=14:|!
4G\
4r
==
*-
